src/main/resources/icons/WordPressIcons/icons/wordPress.svg

<svg xmlns="http://www.w3.org/2000/svg" width="16" height="16" viewBox="0 0 16 16">
  <g fill="none" fill-rule="evenodd">
    <path fill="#32373C" d="M12.5107,5.5625 C12.5107,5.7185 12.5627,5.9255 12.5627,6.0815 C12.5627,6.5995 12.4587,7.1695 12.1487,7.8965 L10.5927,12.4075 C12.0967,11.5265 13.1337,9.8665 13.1337,8.0005 C13.1337,7.1185 12.8737,6.2895 12.5107,5.5625 Z M8.1037,8.4665 L6.5477,12.9255 C7.0147,13.0815 7.4817,13.1335 7.9997,13.1335 C8.5707,13.1335 9.1927,13.0295 9.7107,12.8225 L9.6587,12.7705 L8.1037,8.4665 Z M11.4737,7.7405 C11.4737,7.1185 11.2667,6.6515 11.0597,6.3405 C10.7997,5.9255 10.5407,5.5625 10.5407,5.1485 C10.5407,4.6815 10.9037,4.2145 11.4217,4.2145 L11.4737,4.2145 C10.5407,3.3845 9.3487,2.8665 7.9997,2.8665 C6.2377,2.8665 4.6297,3.7995 3.7477,5.1485 L4.0597,5.1485 C4.5777,5.1485 5.4067,5.0965 5.4067,5.0965 C5.6667,5.0965 5.7187,5.5105 5.4587,5.5105 C5.4587,5.5105 5.1997,5.5625 4.8887,5.5625 L6.7557,11.1115 L7.8967,7.7405 L7.1177,5.5625 C6.8597,5.5625 6.5997,5.5105 6.5997,5.5105 C6.3407,5.5105 6.3407,5.0965 6.6517,5.0965 C6.6517,5.0965 7.4817,5.1485 7.9997,5.1485 C8.5187,5.1485 9.3487,5.0965 9.3487,5.0965 C9.6077,5.0965 9.6587,5.5105 9.4007,5.5105 C9.4007,5.5105 9.1407,5.5625 8.8297,5.5625 L10.5407,11.1115 L11.0597,9.4005 C11.2667,8.6735 11.4737,8.1555 11.4737,7.7405 Z M3.3327,5.9255 L5.7707,12.6155 C4.0597,11.7855 2.8657,10.0225 2.8657,8.0005 C2.8657,7.2745 3.0227,6.5475 3.3327,5.9255 Z"/>
    <path fill="#32373C" d="M8,14.17 C4.63,14.17 1.83,11.422 1.83,8 C1.83,4.63 4.578,1.83 8,1.83 C11.422,1.83 14.17,4.63 14.17,8 C14.17,11.37 11.37,14.17 8,14.17 M8,1 C4.163,1 1,4.163 1,8 C1,11.837 4.163,15 8,15 C11.837,15 15,11.837 15,8 C15,4.163 11.837,1 8,1"/>
  </g>
</svg>

<svg xmlns="http://www.w3.org/2000/svg" width="16" height="16" viewBox="0 0 16 16"><rect id="frame" width="16" height="16" fill="none"/><g fill="#32373C" fill-rule="evenodd"><path d="M12.51 5.563c0 .155.053.363.053.519 0 .518-.104 1.088-.414 1.814l-1.556 4.512c1.504-.881 2.54-2.541 2.54-4.407 0-.882-.26-1.711-.622-2.438zM8.105 8.466l-1.556 4.458c.467.156.934.208 1.452.208a4.77 4.77 0 0 0 1.71-.31l-.051-.053-1.555-4.303zm3.37-.727c0-.622-.207-1.088-.414-1.4-.26-.414-.52-.777-.52-1.191 0-.468.364-.934.882-.934h.052C10.54 3.385 9.349 2.865 8 2.865c-1.762 0-3.37.933-4.252 2.283h.312c.518 0 1.347-.053 1.347-.053.26 0 .312.415.052.415 0 0-.26.051-.57.051l1.867 5.55 1.14-3.372-.778-2.178c-.258 0-.518-.051-.518-.051-.26 0-.26-.415.052-.415 0 0 .83.053 1.348.053.519 0 1.349-.053 1.349-.053.259 0 .31.415.052.415 0 0-.26.051-.571.051l1.71 5.55.52-1.712c.207-.726.414-1.245.414-1.66zM3.333 5.926l2.438 6.69C4.06 11.786 2.866 10.023 2.866 8c0-.726.157-1.453.467-2.075z"/><path d="M8 14.17c-3.37 0-6.17-2.748-6.17-6.17 0-3.37 2.748-6.17 6.17-6.17 3.422 0 6.17 2.8 6.17 6.17s-2.8 6.17-6.17 6.17M8 1C4.163 1 1 4.163 1 8s3.163 7 7 7 7-3.163 7-7-3.163-7-7-7"/></g></svg>
